X: 31
T: Bat Hareem
C: Amitai Ne'eman 1954
O: Israel
M: 2/4
L: 1/8
K: Cm
Q: 1/4=150
%%MIDI program 69 English Horn
%%MIDI bassprog 45 Pizzicato Strings
%%MIDI chordprog 24 Acoustic Guitar
%%MIDI bassvol 64
%%MIDI chordvol 40
"Cm"C2C2|"Bb"B,2CD|"Cm"EF2D |EDC2  |\
C2C2    |"Gm"FG2E |"Fm"FDEC |F4    |
"Cm"C2C2|"Bb"B,2CD|"Cm"EF2D |EDC2  |\
C2C2    |"Gm"FG2E |"Cm"FDEC |C4    |
"Fm"F2F2|FBAG     |AGFE     |F2C2  |\
"Cm"E2E2|EDEF     |GEFG     |"Fm"F4|
"Cm"F2F2|"Fm"FBAG |AGFE     |F2C2  |\
"Cm"E2E2|EDEF     |"Ab"GB,CD|"Cm"C4|



